X: 2471
T: Ballybutton
R: polka
M: 2/4
K: Gmajor
|:B2 G>A|BG ED|G>G Bd|gf e2|
e/f/g dB|cB Ac|B>B AG|EG D2:|
|:E>F GE|DG GA/B/|cA BG|Bd g>f|
e/f/g dB|cB Ac|B>B AG|EF G2:|

